static/img/kroki/1ae6d672c4596f79dae95536874f1894.svg

<?xml version="1.0" encoding="us-ascii" standalone="no"?><svg xmlns="http://www.w3.org/2000/svg" xmlns:xlink="http://www.w3.org/1999/xlink" contentStyleType="text/css" height="152px" preserveAspectRatio="none" style="width:437px;height:152px;" version="1.1" viewBox="0 0 437 152" width="437px" zoomAndPan="magnify"><defs/><g><!--class aws_cloudfront_field_level_encryption_profile--><g id="elem_aws_cloudfront_field_level_encryption_profile"><rect codeLine="22" fill="#3D176E" height="39.7891" id="aws_cloudfront_field_level_encryption_profile" rx="2.5" ry="2.5" style="stroke:#000D19;stroke-width:0.5;" width="423" x="7" y="7"/><ellipse cx="22" cy="26.8945" fill="#ADD1B2" rx="11" ry="11" style="stroke:#181818;stroke-width:1.0;"/><path d="M24.9688,32.5352 Q24.3906,32.832 23.75,32.9727 Q23.1094,33.1289 22.4063,33.1289 Q19.9063,33.1289 18.5781,31.4883 Q17.2656,29.832 17.2656,26.707 Q17.2656,23.582 18.5781,21.9258 Q19.9063,20.2695 22.4063,20.2695 Q23.1094,20.2695 23.75,20.4258 Q24.4063,20.582 24.9688,20.8789 L24.9688,23.5977 Q24.3438,23.0195 23.75,22.7539 Q23.1563,22.4727 22.5313,22.4727 Q21.1875,22.4727 20.5,23.5508 Q19.8125,24.6133 19.8125,26.707 Q19.8125,28.8008 20.5,29.8789 Q21.1875,30.9414 22.5313,30.9414 Q23.1563,30.9414 23.75,30.6758 Q24.3438,30.3945 24.9688,29.8164 L24.9688,32.5352 Z " fill="#000000"/><text fill="#D9B8FF" font-family="Helvetica" font-size="17" lengthAdjust="spacing" textLength="381" x="41" y="32.7798">aws_cloudfront_field_level_encryption_profile</text></g><!--class aws_cloudfront_public_key--><g id="elem_aws_cloudfront_public_key"><rect codeLine="24" fill="#3D176E" height="39.7891" id="aws_cloudfront_public_key" rx="2.5" ry="2.5" style="stroke:#000D19;stroke-width:0.5;" width="266" x="85.5" y="106.79"/><ellipse cx="100.5" cy="126.6845" fill="#ADD1B2" rx="11" ry="11" style="stroke:#181818;stroke-width:1.0;"/><path d="M103.4688,132.3252 Q102.8906,132.622 102.25,132.7627 Q101.6094,132.9189 100.9063,132.9189 Q98.4063,132.9189 97.0781,131.2783 Q95.7656,129.622 95.7656,126.497 Q95.7656,123.372 97.0781,121.7158 Q98.4063,120.0595 100.9063,120.0595 Q101.6094,120.0595 102.25,120.2158 Q102.9063,120.372 103.4688,120.6689 L103.4688,123.3877 Q102.8438,122.8095 102.25,122.5439 Q101.6563,122.2627 101.0313,122.2627 Q99.6875,122.2627 99,123.3408 Q98.3125,124.4033 98.3125,126.497 Q98.3125,128.5908 99,129.6689 Q99.6875,130.7314 101.0313,130.7314 Q101.6563,130.7314 102.25,130.4658 Q102.8438,130.1845 103.4688,129.6064 L103.4688,132.3252 Z " fill="#000000"/><text fill="#D9B8FF" font-family="Helvetica" font-size="17" lengthAdjust="spacing" textLength="224" x="119.5" y="132.5698">aws_cloudfront_public_key</text></g><!--link aws_cloudfront_field_level_encryption_profile to aws_cloudfront_public_key--><g id="link_aws_cloudfront_field_level_encryption_profile_aws_cloudfront_public_key"><path codeLine="26" d="M218.5,47.22 C218.5,62.49 218.5,83.92 218.5,100.53 " fill="none" id="aws_cloudfront_field_level_encryption_profile-to-aws_cloudfront_public_key" style="stroke:#1A83AF;stroke-width:2.0;"/><polygon fill="#1A83AF" points="218.5,105.41,222.5,96.41,218.5,100.41,214.5,96.41,218.5,105.41" style="stroke:#1A83AF;stroke-width:2.0;"/></g><!--SRC=[bP1BJyCm48Jl_0fBFLTggA3j1IbKgk1I8SeDeSYnnwqLnuxMJgk0-E_q0SWaVOZhphUpCxlI4Wnb5HfMein1_ieNsbQSUCbI8hUPEkE8zPJYQZXgYpDdmqLWpakm1vWrWXQyJRoij2Wil6VNaNJFHR4aLrjvi0_4hTzAi26YfePxduP0Egy3eZ1oae-LQfDjqzvG9gDRT3174lID30O3cKpQoCLJPtl_4Wlz3fR4JvkxW4xCpeazTJRbZeX2Teh-w2SpFd4fjLsocsZsVCX45lHdlbXnwJOxMd7ZupC-WE12Ks7QQON9MAhHKVZn52nsdsDyupDXN2qLRIjaIiF8p60Day4AQggWdSqgSaeRi8-hp-DxLPqRBR82pPxvdsl_jPUaus4wU-lVdJR-0W00]--></g></svg>

<svg xmlns="http://www.w3.org/2000/svg" width="437" height="152" preserveAspectRatio="none" style="width:437px;height:152px"><rect width="423" height="39.789" x="7" y="7" fill="#3D176E" rx="2.5" ry="2.5" style="stroke:#000d19;stroke-width:.5"/><circle cx="22" cy="26.895" r="11" fill="#ADD1B2" style="stroke:#181818;stroke-width:1"/><path d="M24.969 32.535q-.578.297-1.219.438-.64.156-1.344.156-2.5 0-3.828-1.64-1.312-1.657-1.312-4.782t1.312-4.781q1.328-1.656 3.828-1.656.703 0 1.344.156.656.156 1.219.453v2.719q-.625-.578-1.219-.844-.594-.281-1.219-.281-1.343 0-2.031 1.078-.688 1.062-.688 3.156 0 2.094.688 3.172.688 1.062 2.031 1.062.625 0 1.219-.265.594-.281 1.219-.86v2.72Z"/><text x="41" y="32.78" fill="#D9B8FF" font-family="Helvetica" font-size="17" textLength="381">aws_cloudfront_field_level_encryption_profile</text><rect width="266" height="39.789" x="85.5" y="106.79" fill="#3D176E" rx="2.5" ry="2.5" style="stroke:#000d19;stroke-width:.5"/><circle cx="100.5" cy="126.684" r="11" fill="#ADD1B2" style="stroke:#181818;stroke-width:1"/><path d="M103.469 132.325q-.578.297-1.219.438-.64.156-1.344.156-2.5 0-3.828-1.64-1.312-1.657-1.312-4.782t1.312-4.781q1.328-1.656 3.828-1.656.703 0 1.344.156.656.156 1.219.453v2.719q-.625-.579-1.219-.844-.594-.281-1.219-.281-1.344 0-2.031 1.078-.688 1.062-.688 3.156 0 2.094.688 3.172.688 1.062 2.031 1.062.625 0 1.219-.265.594-.281 1.219-.86v2.72Z"/><text x="119.5" y="132.57" fill="#D9B8FF" font-family="Helvetica" font-size="17" textLength="224">aws_cloudfront_public_key</text><path fill="none" d="M218.5 47.22v53.31" style="stroke:#1a83af;stroke-width:2"/><path fill="#1A83AF" d="m218.5 105.41 4-9-4 4-4-4 4 9z" style="stroke:#1a83af;stroke-width:2"/></svg>
